svg/uf012d-vault_armour.svg

<svg height="960" style="" width="975" xmlns="http://www.w3.org/2000/svg"><path d="m481.54313-60c-281.77875 0-361.90125 299.59875-361.90125 299.59875v626.0625l237.29625 154.33875h53.39249v-382.725l-158.625-118.7325c-22.44375-34.3575-28.8225-116.60625 0-145.42875h191.3625v207.73125h99.32626v-206.145h169.12124c37.02376 25.11 29.19376 113.23125 13.365 140.805l-154.33875 130.64625v373.81505h51.97501l232.84124-161.79755v-623.025s-71.2125-295.14375-373.81499-295.14375z" style="stroke-width:33.75"/></svg>

<svg xmlns="http://www.w3.org/2000/svg" width="975" height="960">
    <path d="M481.543-60c-281.779 0-361.901 299.599-361.901 299.599V865.66L356.938 1020h53.393V637.275L251.706 518.543c-22.444-34.358-28.823-116.607 0-145.43h191.362v207.732h99.326V374.7h169.122c37.023 25.11 29.193 113.231 13.365 140.805L570.54 646.151v373.815h51.976L855.358 858.17V235.144S784.146-60 481.543-60" style="stroke-width:33.75"/>
</svg>
